X: 1
T:The Cliffs of Moher
M:6/8
L:1/8
Q:1/4=200
C:Trad
R:jig
K:A Dorian
eaa bag|eaf ged|c2 A BAG|EFG ABd|!
eaa bag|eaf ged|c2 A BAG|EFG A3:|!
e2 e dBA|e2 e dBA|GAB dBA|GAB dBd|!
e2 e dBA|e2 e dBA|GAB dBA|EFG A3|!
e2 e dBA|e2 e dBA|GAB dBA|GAB dBd|!
e2 e dee|cee Bee|EFG BAG|EDG A3||!
